X:1
T:Allegro
T:Allegro
T:from Trio Sonata Op. 3, No. 1 adapted for two Flutes and Cello 
T:Arcangelo Corelli (1653-1713)
T:twoflutes 2019 / Felix Scharpf /https://commons.wikimedia.org/wiki/File:Arcangelo_Corelli,_portrait_by_Hugh_Howard_(1697).jpg
T:twoflutes 2019 / Felix Scharpf /https://commons.wikimedia.org/wiki/File:Arcangelo_Corelli,_portrait_by_Hugh_Howard_(1697).jpg
T:twoflutes 2019 / Felix Scharpf /https://commons.wikimedia.org/wiki/File:Arcangelo_Corelli,_portrait_by_Hugh_Howard_(1697).jpg
T:twoflutes 2019 / Felix Scharpf /https://commons.wikimedia.org/wiki/File:Arcangelo_Corelli,_portrait_by_Hugh_Howard_(1697).jpg
C:Arcangelo Corelli (1653-1713)
Z:twoflutes 2019 / Felix Scharpf /https://commons.wikimedia.org/wiki/File:Arcangelo_Corelli,_portrait_by_Hugh_Howard_(1697).jpg
%%score [ 1 2 3 ]
L:1/8
Q:1/4=110
M:4/4
K:F
V:1 treble nm="Flöte" snm="Fl."
V:2 treble nm="Flöte" snm="Fl."
V:3 bass nm="Violoncello" snm="Vc."
V:1
!mf! F4 c3 .c | .d.d .d(c/B/) .cF f2- | f2 e2 z!mp! .a b2- | b(a/g/) .a(b/a/) g3 (a/g/) | %4
 f3 (e/d/) .ec z c' | b3 (c'/b/) a3 .a | (gc).e.c f3 (g/f/) | (e/f/)e/f/ .g.g .gc f2- | %8
 f(g/f/) .e.g (a/g/)f/e/ d>d | e2!mf! c2 f3 .f | .b.b .b(a/g/) a3 (b/a/) | g2 g2- g.c .f(f/e/) | %12
 d3 (c/B/) c3 F | (B/A/)B/c/ (B/d/)c/B/ A3 .a | (g/f/)g/a/ (g/b/)a/g/ .f.A B2- | %15
 B(A/G/) A2- A.D G2- | G.c f3 .d g2- | g.e a3 .f b2- | b2 a2 g4 | f3!mp!!>(! .c (dcBA)!>)! | %20
!p! G4 F4 |!mf! .f/(a/g/f/ e/d/c/B/ .A/)(f/e/d/ c/B/A/G/) | F4 c3 .c | .d.d .d(c/B/) .c.F f2- | %24
 f(g/f/) .e(a/g/) .f d2 .g | .e c2 .c' (b/a/)b/c'/ (b/d'/)c'/b/ | .c' a2 (b/a/) .g(f/e/) .d(e/d/) | %27
 .^c a2 g2 .f e2 |!mp! .d/(f/e/d/ c/B/A/G/) .F!mf!(g/f/ e/d/c/B/) | .A/(c'/b/a/ g/f/e/d/) c2 z .c | %30
 .d.d .d(c/d/) .e(d/e/) f2- | fe.dg- gf.ea- | ag.cf- fe.Ad- | dc.FB- BA .c(B/A/) | %34
!mp!!>(! .G.C c2- c.f (G2-!>)! |[Q:1/4=71]"^Adagio"!p!!>(! G2 A2 G4 | !fermata!F8)!>)! |] %37
V:2
 z8 | z4!mf! F4 | c3 .c .d.d .d(c/B/) | .cF f4 e2 | z!mp! a b2- b(a/g/) a(b/a/) | g4 (cf).a.f | %6
 .c'.G c4 P=B2 | c3 .g a3 .a | .=B.G c4 PB2 | c2 z .c' (ag).a.f | g2 g2- g(f/e/) f2- | %11
 f2 e2 a2 a2- | .b.d g2- g.c f2- | f(g/f/) e2- e.A d2- | d2 P^c2 d3 .d | %15
 (c/B/)c/d/ (c/d/)c/d/ (B/A/)B/c/ (B/d/)c/B/ | A3 .c d3 .d | e3 .e f3 .g | .e.c f4 e2 | %19
 f3!mp!!>(! .A (DE) F2-!>)! |!p! F2 E2 F4 | z8 |!mf! .f/(a/g/f/ e/d/c/B/ .A/)(f/e/d/ c/B/A/G/) | %23
!mp! .F(G/A/) B2- B(A/G/) .A(G/F/) | .G.C c2- c.F B2- | B(A/G/) .A!mf!.a (g/f/)g/a/ (g/b/)a/g/ | %26
 (f/e/)f/g/ (f/a/)g/f/ .e a2 g- | g(f/e/) .d(e/d/) .^c d2 .c | d2 z2 z/!mf! (f/e/d/ c/B/A/G/) | %29
 .F/(a/g/f/ e/d/c/B/) .A.B c2- | c.F B2- B(c/B/) .A(B/A/) | .G c2 .B .A d2 .c | .B b2 .a g2 f2 | %33
 e2 d2 .c.F .A(G/F/) |!mp!!>(! E2 z .a .f d2 .g!>)! |!p!!>(! (ec f4 e2 | !fermata!f8)!>)! |] %37
V:3
 z8 | z8 | z8 |!mf! F,4 C3 .C | .D.D .D(C/B,/) .C.F,[K:tenor] F2- | F2 E2 F3 .F | E3 .E (DC).D.G, | %7
 (CDE)[K:bass]E, (F,G,A,)F, | .G,.G,(A,E,) .F,.D, G,2 | C,2 z2 z4 | z8 | C,4 F,3 .F, | %12
 .B,.B, .B,(A,/G,/) A,3 .D | G,2 C2 F,3 .B, | E,2 A,2 D,2 z2 | F,3 (F,/E,/) .D,.D,(E,C,) | %16
 F,(F,/G,/) .A,.A,, B,,3 .G,, | C,3 .A,, D,3 B,, | .C,(CD)A, .B,(G,C).C, | %19
 (F,G,A,)!mp!!>(!.A,, (B,,C,D,).A,,!>)! |!p! .B,,(G,,C,)C,, F,,4 | z8 | z8 | z4 F,4 | %24
 C3 C DD D(C/B,/) | CF,[K:tenor] F2- F (E/D/) E2- | E.C F2- F.E .D2 | A,D,G,G,, A,,B,,G,,A,, | %28
 D,,2 z2 z4 | z4 z/!f! (F/E/D/ C/B,/A,/G,/) | %30
 .F,/(C/B,/A,/ G,/F,/E,/D,/) (.C,/D,/E,/)C,/ (F,/G,/A,/).F,/ | C2 G,2 D2 A,2 | %32
 (D,E,F,).F,, C,2 D,2 |!mf!!>(! A,,2 B,,2 F,4!>)! |!mp!!>(! C3 .C .D.D .D(C/B,/)!>)! | %35
!p!!>(! C4 C,4 | !fermata!F,,8!>)! |] %37

